X: 9
T: Boys Of Bluehill, The
Z: CaseyAnn Michael
S: https://thesession.org/tunes/651#setting30404
R: hornpipe
M: 4/4
L: 1/8
K: Dmaj
K: Dmaj
FA|BA FA D2 FA| BA (3Bcd e2 de |fa gf eg fe|df ed B2 dB|
BA FA D2 FA| BA (3Bcd e2 de |fa gf eg fe|d2 f2 d2 :|
|: fg| af df a2 gf | gf ga b2 ag |fa gf eg fe |df ed B2 dB|
BA FA D2 FA| BA (3Bcd e2 de |fa gf eg fe|d2 f2 d2 :|
